X: 82
T: No_9_Song_of_Brave_Man's_Dance.krn
N: Derived from No_9_Song_of_Brave_Man's_Dance.krn
%%abc-version 2.0
%%abcx-abcm2ps-target-version 5.9.1 (29 Sep 2008)
%%abc-creator hum2abc beta
%%abcx-conversion-date 2019/03/15 08:25:36
%%humdrum-veritas 1885309460
%%humdrum-veritas-data 3125697490
%%linebreak <none>
%%barnumbers 0
L: 1/8
M: 2/4
K: Bb clef=bass
[K:clef=bass][M:2/4]D2DE | 
DA,A,2 | 
CB, A,G, | 
A,2A,2 | 
A,B,G,2 | 
G,A, G, z | 
G,2G,A, | 
G,2G,2 | 
D2DE | 
DA,A,2 | 
A,B, A,G, | 
[M:3/4]A,2A,B, A,B, | 
[M:2/4]G, z G,A, | 
G,2z2 | 
G,2G,A, | 
G,2B,2 | 
[M:3/4]B,2B,G,A,2 | 
[M:2/4]B,2B,G, | 
[M:3/4]A,2A,B, A,B, | 
[M:2/4]G,2G,A, | 
G,2z2 | 
G,2G,A, | 
G,2B,2 | 
[M:3/4]B,2A,G,A,2 | 
B,2A,G,A,2 | 
[M:2/4]B,2A,G, | 
[M:3/4]A,2A,B, A,B, | 
[M:2/4]G,2G,A, | 
G,2z2 |]  
